dashboard/assets/pic-111-a2b8172296df62b8.svg

<svg xmlns="http://www.w3.org/2000/svg" viewBox="0 0 28.99 28.99"><defs><style>.cls-1{fill:#fff}.cls-2{fill:#69bffe}</style></defs><g id="图层_2" data-name="图层 2"><g id="央铋_1" data-name="央铋 1"><path class="cls-1" d="M14.5 29A14.5 14.5 0 1129 14.5 14.51 14.51 0 0114.5 29zm0-28.45a13.95 13.95 0 1013.94 14A14 14 0 0014.5.55z"/><path class="cls-1" d="M14.5 26.46a12 12 0 1112-12 12 12 0 01-12 12zm0-23.37A11.41 11.41 0 1025.91 14.5 11.41 11.41 0 0014.5 3.09z"/><circle class="cls-2" cx="14.5" cy="2.81" r=".76"/><path class="cls-2" d="M12.2 3a.76.76 0 10-.53.93.75.75 0 00.53-.93zM9.31 4a.75.75 0 00-1-.28A.75.75 0 109 5a.75.75 0 00.31-1z"/><circle class="cls-2" cx="6.23" cy="6.23" r=".76"/><path class="cls-2" d="M4.75 8a.75.75 0 00-1 .28A.75.75 0 105 9a.75.75 0 00-.25-1zM3.4 10.74A.76.76 0 003 12.2a.76.76 0 10.39-1.46z"/><circle class="cls-2" cx="2.81" cy="14.5" r=".76"/><path class="cls-2" d="M3 16.79a.76.76 0 10.93.53.76.76 0 00-.93-.53zM4 19.68a.76.76 0 00-.28 1A.76.76 0 005 20a.76.76 0 00-1-.32z"/><circle class="cls-2" cx="6.23" cy="22.76" r=".76"/><path class="cls-2" d="M8 24.24a.75.75 0 00.28 1 .75.75 0 10-.28-1zM10.74 25.59a.76.76 0 001.46.41.76.76 0 10-1.46-.39zM13.74 26.18a.76.76 0 101.51 0 .76.76 0 00-1.51 0zM16.79 26a.76.76 0 10.53-.93.76.76 0 00-.53.93zM19.68 25a.76.76 0 001 .28A.76.76 0 0020 24a.76.76 0 00-.32 1z"/><circle class="cls-2" cx="22.76" cy="22.76" r=".76"/><path class="cls-2" d="M24.24 21a.75.75 0 001-.27A.76.76 0 1024 20a.75.75 0 00.24 1zM25.59 18.25a.76.76 0 00.41-1.46.76.76 0 10-.39 1.46zM26.18 15.25a.76.76 0 10-.75-.75.75.75 0 00.75.75zM26 12.2a.76.76 0 10-.93-.53.76.76 0 00.93.53zM25 9.31a.75.75 0 00.28-1 .75.75 0 00-1-.28.75.75 0 00.72 1.28z"/><circle class="cls-2" cx="22.76" cy="6.23" r=".76"/><path class="cls-2" d="M21 4.75a.75.75 0 00-.27-1A.76.76 0 1020 5a.75.75 0 001-.25zM18.25 3.4a.76.76 0 10-.93.54.75.75 0 00.93-.54z"/><path class="cls-1" d="M14.5 23.79a9.31 9.31 0 01-9.3-9.29h.55a8.75 8.75 0 008.75 8.74zM23.79 14.5h-.55a8.75 8.75 0 00-8.74-8.75V5.2a9.31 9.31 0 019.29 9.3z"/></g></g></svg>

<svg xmlns="http://www.w3.org/2000/svg" viewBox="0 0 28.99 28.99"><defs><style>.cls-1{fill:#fff;}.cls-2{fill:#69bffe;}</style></defs><title>资源 11</title><g id="图层_2" data-name="图层 2"><g id="央铋_1" data-name="央铋 1"><path class="cls-1" d="M14.5,29A14.5,14.5,0,1,1,29,14.5,14.51,14.51,0,0,1,14.5,29ZM14.5.55a13.95,13.95,0,1,0,13.94,14A14,14,0,0,0,14.5.55Z"/><path class="cls-1" d="M14.5,26.46a12,12,0,1,1,12-12A12,12,0,0,1,14.5,26.46Zm0-23.37A11.41,11.41,0,1,0,25.91,14.5,11.41,11.41,0,0,0,14.5,3.09Z"/><circle class="cls-2" cx="14.5" cy="2.81" r="0.76"/><path class="cls-2" d="M12.2,3a.76.76,0,1,0-.53.93A.75.75,0,0,0,12.2,3Z"/><path class="cls-2" d="M9.31,4a.75.75,0,0,0-1-.28A.75.75,0,1,0,9,5,.75.75,0,0,0,9.31,4Z"/><circle class="cls-2" cx="6.23" cy="6.23" r="0.76"/><path class="cls-2" d="M4.75,8a.75.75,0,0,0-1,.28A.75.75,0,1,0,5,9,.75.75,0,0,0,4.75,8Z"/><path class="cls-2" d="M3.4,10.74A.76.76,0,0,0,3,12.2a.76.76,0,1,0,.39-1.46Z"/><circle class="cls-2" cx="2.81" cy="14.5" r="0.76"/><path class="cls-2" d="M3,16.79a.76.76,0,1,0,.93.53A.76.76,0,0,0,3,16.79Z"/><path class="cls-2" d="M4,19.68a.76.76,0,0,0-.28,1A.76.76,0,0,0,5,20,.76.76,0,0,0,4,19.68Z"/><circle class="cls-2" cx="6.23" cy="22.76" r="0.76"/><path class="cls-2" d="M8,24.24a.75.75,0,0,0,.28,1,.75.75,0,1,0-.28-1Z"/><path class="cls-2" d="M10.74,25.59A.76.76,0,0,0,12.2,26a.76.76,0,1,0-1.46-.39Z"/><path class="cls-2" d="M13.74,26.18a.76.76,0,1,0,1.51,0,.76.76,0,0,0-1.51,0Z"/><path class="cls-2" d="M16.79,26a.76.76,0,1,0,.53-.93A.76.76,0,0,0,16.79,26Z"/><path class="cls-2" d="M19.68,25a.76.76,0,0,0,1,.28A.76.76,0,0,0,20,24,.76.76,0,0,0,19.68,25Z"/><circle class="cls-2" cx="22.76" cy="22.76" r="0.76"/><path class="cls-2" d="M24.24,21a.75.75,0,0,0,1-.27A.76.76,0,1,0,24,20,.75.75,0,0,0,24.24,21Z"/><path class="cls-2" d="M25.59,18.25A.76.76,0,0,0,26,16.79a.76.76,0,1,0-.39,1.46Z"/><path class="cls-2" d="M26.18,15.25a.76.76,0,1,0-.75-.75A.75.75,0,0,0,26.18,15.25Z"/><path class="cls-2" d="M26,12.2a.76.76,0,1,0-.93-.53A.76.76,0,0,0,26,12.2Z"/><path class="cls-2" d="M25,9.31a.75.75,0,0,0,.28-1,.75.75,0,0,0-1-.28A.75.75,0,0,0,25,9.31Z"/><circle class="cls-2" cx="22.76" cy="6.23" r="0.76"/><path class="cls-2" d="M21,4.75a.75.75,0,0,0-.27-1A.76.76,0,1,0,20,5,.75.75,0,0,0,21,4.75Z"/><path class="cls-2" d="M18.25,3.4a.76.76,0,1,0-.93.54A.75.75,0,0,0,18.25,3.4Z"/><path class="cls-1" d="M14.5,23.79A9.31,9.31,0,0,1,5.2,14.5h.55a8.75,8.75,0,0,0,8.75,8.74Z"/><path class="cls-1" d="M23.79,14.5h-.55A8.75,8.75,0,0,0,14.5,5.75V5.2A9.31,9.31,0,0,1,23.79,14.5Z"/></g></g></svg>
